X:4
T:Jingle Bells (Chorus)
M:4/4
L:1/8
Q:1/4=140
K:C
E2 E2 E4|E2 E2 E4|
E2 G2 C2 D2|E8|
F2 F2 F2 F2|F2 E2 E2 E2|
E2 D2 D2 E2|D4 G4||

